usr/share/icons/biglinux-icons-material/scalable/apps/securefx.svg

<?xml version="1.0" encoding="UTF-8" standalone="no"?>
<svg
   width="24"
   height="24"
   viewBox="0 0 6.349875 6.349875"
   version="1.1"
   id="svg6"
   sodipodi:docname="securefx.svg"
   inkscape:version="1.3 (0e150ed6c4, 2023-07-21)"
   xmlns:inkscape="http://www.inkscape.org/namespaces/inkscape"
   xmlns:sodipodi="http://sodipodi.sourceforge.net/DTD/sodipodi-0.dtd"
   xmlns="http://www.w3.org/2000/svg"
   xmlns:svg="http://www.w3.org/2000/svg">
  <defs
     id="defs6">
    <linearGradient
       id="paint0_linear_201_118"
       x1="23"
       y1="0.99999899"
       x2="1"
       y2="12"
       gradientUnits="userSpaceOnUse"
       gradientTransform="scale(0.26457812)">
      <stop
         stop-color="#198CFF"
         id="stop5-5" />
      <stop
         offset="1"
         stop-color="#1964FF"
         id="stop6-0" />
    </linearGradient>
    <linearGradient
       id="paint1_linear_201_48"
       x1="21"
       y1="4"
       x2="3"
       y2="4"
       gradientUnits="userSpaceOnUse"
       gradientTransform="scale(0.26457812)">
      <stop
         stop-opacity="0.5"
         id="stop7" />
      <stop
         offset="0.890123"
         id="stop8" />
      <stop
         offset="1"
         stop-opacity="0"
         id="stop9" />
    </linearGradient>
    <linearGradient
       id="paint2_linear_201_48"
       x1="12"
       y1="3"
       x2="11.5"
       y2="8"
       gradientUnits="userSpaceOnUse"
       gradientTransform="scale(0.26457812)">
      <stop
         stop-color="#DDDDDD"
         id="stop10" />
      <stop
         offset="1"
         stop-color="#CCCCCC"
         stop-opacity="0"
         id="stop11" />
    </linearGradient>
    <linearGradient
       id="paint3_linear_201_48"
       x1="23"
       y1="9"
       x2="1.01236"
       y2="9.52141"
       gradientUnits="userSpaceOnUse"
       gradientTransform="scale(0.26457812)">
      <stop
         stop-opacity="0.5"
         id="stop12" />
      <stop
         offset="1"
         id="stop13" />
    </linearGradient>
    <linearGradient
       id="paint4_linear_201_118"
       x1="23"
       y1="5.4000001"
       x2="1.42949"
       y2="23.511499"
       gradientUnits="userSpaceOnUse"
       gradientTransform="scale(0.26457812)">
      <stop
         stop-color="#198CFF"
         id="stop14-0" />
      <stop
         offset="1"
         stop-color="#3F8AE8"
         id="stop15-6" />
    </linearGradient>
    <linearGradient
       id="paint5_linear_201_118"
       x1="15"
       y1="5.5"
       x2="5.5"
       y2="19.5"
       gradientUnits="userSpaceOnUse"
       gradientTransform="scale(0.26457812)">
      <stop
         stop-color="#85F8FF"
         id="stop16-1" />
      <stop
         offset="1"
         stop-color="#105BF6"
         id="stop17-5" />
    </linearGradient>
  </defs>
  <sodipodi:namedview
     id="namedview6"
     pagecolor="#ffffff"
     bordercolor="#000000"
     borderopacity="0.25"
     inkscape:showpageshadow="2"
     inkscape:pageopacity="0.0"
     inkscape:pagecheckerboard="0"
     inkscape:deskcolor="#d1d1d1"
     inkscape:zoom="5.6568543"
     inkscape:cx="20.32932"
     inkscape:cy="24.837126"
     inkscape:window-width="2560"
     inkscape:window-height="998"
     inkscape:window-x="0"
     inkscape:window-y="0"
     inkscape:window-maximized="1"
     inkscape:current-layer="svg6" />
  <rect
     opacity="0.8125"
     x="0.26457813"
     y="0.26457813"
     width="5.8207188"
     height="5.8207188"
     rx="1.7462156"
     fill="url(#paint0_linear_201_118)"
     id="rect1"
     style="fill:url(#paint0_linear_201_118);stroke-width:0.264578" />
  <rect
     opacity="0.125"
     x="0.79373437"
     y="0.59530079"
     width="4.7624063"
     height="4.7624063"
     rx="1.1641438"
     fill="url(#paint1_linear_201_118)"
     fill-opacity="0.875"
     id="rect2-5"
     style="fill:url(#paint1_linear_201_48);stroke-width:0.264578" />
  <rect
     x="0.8598789"
     y="0.8598789"
     width="4.6301169"
     height="4.6301169"
     rx="1.0979992"
     fill="#cccccc"
     stroke="url(#paint2_linear_201_118)"
     stroke-width="0.132289"
     id="rect3-9"
     style="stroke:url(#paint2_linear_201_48)" />
  <path
     opacity="0.125"
     d="m 0.26457812,1.9864023 c 0,-0.4395093 0.35629148,-0.7958008 0.79580068,-0.7958008 h 1.106643 c 0.2842945,0 0.559932,0.097878 0.7805372,0.2771774 v 0 c 0.2206317,0.1792993 0.4962427,0.2771773 0.7805584,0.2771773 h 1.5613813 c 0.4395172,0 0.7957981,0.3562915 0.7957981,0.7958007 v 1.560204 c 0,0.9644137 -0.7818019,1.7462156 -1.7462156,1.7462156 H 2.0107937 c -0.9644084,0 -1.74621558,-0.7818019 -1.74621558,-1.7462156 z"
     fill="url(#paint3_linear_201_118)"
     fill-opacity="0.875"
     id="path3-9"
     style="fill:url(#paint3_linear_201_48);stroke-width:0.264578" />
  <path
     d="m 0.26457812,2.2245226 c 0,-0.4395093 0.35629148,-0.7958008 0.79580068,-0.7958008 h 1.106643 c 0.2842945,0 0.559932,0.097878 0.7805372,0.2771774 v 0 c 0.2206317,0.1792993 0.4962427,0.2771773 0.7805584,0.2771773 h 1.5613813 c 0.4395172,0 0.7957981,0.3562915 0.7957981,0.795814 v 1.5601907 c 0,0.9644137 -0.7818019,1.7462156 -1.7462156,1.7462156 H 2.0107937 c -0.9644084,0 -1.74621558,-0.7818019 -1.74621558,-1.7462156 z"
     fill="url(#paint4_linear_201_118)"
     id="path4-1"
     style="opacity:0.875;fill:url(#paint4_linear_201_118);stroke-width:0.264578" />
  <path
     d="M 5.98608,2.7788905 V 4.3390812 C 5.98608,5.2487007 5.2487007,5.98608 4.3390812,5.98608 H 2.0107937 c -0.9096116,0 -1.64699878,-0.7373793 -1.64699878,-1.6469988 V 2.2245226 c 0,-0.3847125 0.31187145,-0.696584 0.69658388,-0.696584 h 1.106643 c 0.2615037,0 0.5150331,0.090031 0.7179645,0.2549555 0.2383055,0.1936738 0.5360352,0.2993992 0.8431311,0.2993992 h 1.5613813 c 0.3846966,0 0.6965813,0.3118715 0.6965813,0.6965972 z"
     stroke="url(#paint5_linear_201_118)"
     stroke-opacity="0.375"
     stroke-width="0.198434"
     stroke-linejoin="round"
     id="path5-4"
     style="opacity:0.875;stroke:url(#paint5_linear_201_118);fill:none" />
  <path
     d="m 2.2144524,2.3100988 v 0.4802326 a 1.921384,1.921384 0 0 1 1.921384,1.921384 H 4.6160689 A 2.4011626,2.4011626 0 0 0 2.2144524,2.3100988 m 0,0.960919 v 0.4802326 c 0.530616,0 0.9609189,0.4303028 0.9609189,0.960465 H 3.6556038 A 1.4411514,1.4411514 0 0 0 2.2144524,3.2710178 m 0,0.9604651 a 0.48045948,0.48045948 0 1 0 0,0.9609189 0.48045948,0.48045948 0 0 0 0,-0.9609189"
     opacity="0.15"
     id="path7"
     style="stroke-width:1" />
  <path
     id="rect7"
     style="fill:#4d4d4d;fill-opacity:1;stroke-width:0.264578"
     d="M 4.8709246,3.0044086 A 2.2436676,2.2436676 0 0 0 2.6271781,5.2481552 2.2436676,2.2436676 0 0 0 2.7946064,6.0852969 h 1.5445782 c 0.9674025,0 1.7461123,-0.7787098 1.7461123,-1.7461123 V 3.3620025 A 2.2436676,2.2436676 0 0 0 4.8709246,3.0044086 Z" />
  <path
     id="path10"
     style="fill:#ffffff;fill-opacity:1;stroke-width:0.264578"
     d="m 4.8704075,3.953686 c -0.4336129,0 -0.7864915,0.3503028 -0.7885665,0.7839161 V 5.2078483 H 4.031199 c -0.1172209,0 -0.2108357,0.093098 -0.2108357,0.210319 v 0.6671296 h 0.5188212 c 0.15287,0 0.3007065,-0.019764 0.441825,-0.056326 V 5.8920308 c -0.06276,-0.032158 -0.101801,-0.096879 -0.103351,-0.1700121 0,-0.1019997 0.082094,-0.1870219 0.182931,-0.1922325 0.0033,-1.681e-4 0.0065,0 0.0098,0 0.107365,0 0.192232,0.086942 0.192232,0.1922325 0,0.073134 -0.03852,0.1378544 -0.10335,0.1700121 v 0.080614 c 0.366293,-0.1383956 0.672979,-0.395948 0.873313,-0.7260399 -0.03443,-0.024365 -0.07639,-0.038757 -0.121438,-0.038757 h -0.05116 V 4.7376021 C 5.6579465,4.3039888 5.3055765,3.953686 4.8704075,3.953686 Z m 0,0.2470085 c 0.29772,0 0.538959,0.2391872 0.543109,0.5369076 V 5.2078483 H 4.3293663 V 4.7376021 C 4.3335163,4.4398817 4.5742441,4.2006945 4.8704075,4.2006945 Z" />
</svg>

<svg xmlns="http://www.w3.org/2000/svg" width="24" height="24" viewBox="0 0 6.35 6.35"><defs><linearGradient id="a" x1="23" x2="1" y1="1" y2="12" gradientTransform="scale(.26458)" gradientUnits="userSpaceOnUse"><stop stop-color="#198CFF"/><stop offset="1" stop-color="#1964FF"/></linearGradient><linearGradient id="b" x1="21" x2="3" y1="4" y2="4" gradientTransform="scale(.26458)" gradientUnits="userSpaceOnUse"><stop stop-opacity=".5"/><stop offset=".89"/><stop offset="1" stop-opacity="0"/></linearGradient><linearGradient id="c" x1="12" x2="11.5" y1="3" y2="8" gradientTransform="scale(.26458)" gradientUnits="userSpaceOnUse"><stop stop-color="#DDD"/><stop offset="1" stop-color="#CCC" stop-opacity="0"/></linearGradient><linearGradient id="d" x1="23" x2="1.012" y1="9" y2="9.521" gradientTransform="scale(.26458)" gradientUnits="userSpaceOnUse"><stop stop-opacity=".5"/><stop offset="1"/></linearGradient><linearGradient id="e" x1="23" x2="1.429" y1="5.4" y2="23.511" gradientTransform="scale(.26458)" gradientUnits="userSpaceOnUse"><stop stop-color="#198CFF"/><stop offset="1" stop-color="#3F8AE8"/></linearGradient><linearGradient id="f" x1="15" x2="5.5" y1="5.5" y2="19.5" gradientTransform="scale(.26458)" gradientUnits="userSpaceOnUse"><stop stop-color="#85F8FF"/><stop offset="1" stop-color="#105BF6"/></linearGradient></defs><rect width="5.821" height="5.821" x=".265" y=".265" fill="url(#a)" opacity=".813" rx="1.746" style="fill:url(#a);stroke-width:.264578"/><rect width="4.762" height="4.762" x=".794" y=".595" fill="url(#paint1_linear_201_118)" fill-opacity=".875" opacity=".125" rx="1.164" style="fill:url(#b);stroke-width:.264578"/><rect width="4.63" height="4.63" x=".86" y=".86" fill="#ccc" stroke="url(#paint2_linear_201_118)" stroke-width=".132" rx="1.098" style="stroke:url(#c)"/><path fill="url(#paint3_linear_201_118)" fill-opacity=".875" d="M.265 1.986c0-.44.356-.795.795-.795h1.107c.284 0 .56.097.78.277.221.18.497.277.781.277H5.29c.44 0 .796.356.796.796V4.1c0 .964-.782 1.746-1.746 1.746H2.011A1.746 1.746 0 0 1 .265 4.101z" opacity=".125" style="fill:url(#d);stroke-width:.264578"/><path fill="url(#e)" d="M.265 2.225c0-.44.356-.796.795-.796h1.107c.284 0 .56.098.78.277.221.18.497.277.781.277H5.29c.44 0 .796.356.796.796v1.56c0 .964-.782 1.746-1.746 1.746H2.011A1.746 1.746 0 0 1 .265 4.34z" style="opacity:.875;fill:url(#e);stroke-width:.264578"/><path stroke="url(#f)" stroke-linejoin="round" stroke-opacity=".375" stroke-width=".198" d="M5.986 2.779v1.56c0 .91-.737 1.647-1.647 1.647H2.011C1.1 5.986.364 5.25.364 4.34V2.225c0-.385.312-.697.696-.697h1.107c.262 0 .515.09.718.255.238.194.536.3.843.3H5.29c.385 0 .697.311.697.696z" style="opacity:.875;stroke:url(#f);fill:none"/><path d="M2.214 2.31v.48a1.921 1.921 0 0 1 1.922 1.922h.48A2.401 2.401 0 0 0 2.214 2.31m0 .961v.48c.531 0 .961.43.961.96h.48a1.441 1.441 0 0 0-1.44-1.44m0 .96a.48.48 0 1 0 0 .961.48.48 0 0 0 0-.96" opacity=".15" style="stroke-width:1"/><path d="M4.87 3.004a2.244 2.244 0 0 0-2.243 2.244 2.244 2.244 0 0 0 .168.837h1.544c.968 0 1.746-.778 1.746-1.746v-.977a2.244 2.244 0 0 0-1.214-.358Z" style="fill:#4d4d4d;fill-opacity:1;stroke-width:.264578"/><path d="M4.87 3.954a.788.788 0 0 0-.788.784v.47h-.05a.21.21 0 0 0-.212.21v.667h.52c.152 0 .3-.02.441-.056v-.137a.193.193 0 0 1-.103-.17c0-.102.082-.187.183-.192h.01a.192.192 0 0 1 .088.362v.08c.367-.138.673-.395.874-.725a.21.21 0 0 0-.122-.04H5.66v-.47a.788.788 0 0 0-.79-.783Zm0 .247c.298 0 .54.239.544.537v.47H4.329v-.47A.543.543 0 0 1 4.87 4.2Z" style="fill:#fff;fill-opacity:1;stroke-width:.264578"/></svg>
